svgs/1F600.svg

<svg xmlns="http://www.w3.org/2000/svg" xmlns:xlink="http://www.w3.org/1999/xlink" preserveAspectRatio="none" viewBox="0 0 72 72"><defs><path id="a" fill="#FCC21B" d="M35.85 4.85q-22.3 0-31.05 20.65Q0 36.75 0 51.95q0 5.85 10.5 9.95 10.5 4.15 25.35 4.15 14.9 0 25.4-4.15 10.5-4.1 10.5-9.95 0-15.2-4.8-26.45Q58.2 4.85 35.85 4.85z"/><path id="b" fill="#ED6C30" d="M54.95 43.95q.95-3.3-.7-4.4-1.1-.75-2.85-.6-.2.05-3 .6Q42.7 40.7 36 40.7q-6.75 0-12.4-1.15-2.8-.55-3-.6-1.75-.15-2.9.6-1.6 1.1-.65 4.4.95 3.3 3.55 6.05 2.4 2.45 5.4 4 4.55 2.4 10 2.4T46 54q3-1.55 5.35-4 2.65-2.75 3.6-6.05z"/><path id="c" fill="#2F2F2F" d="M47.8 44.7q-2.45-2.85-5.8-2.8-3.35.05-5.75 2.9-2.35 2.9-2.3 6.9.05 4 2.45 6.85 2.45 2.8 5.8 2.75 3.35-.05 5.7-2.9t2.35-6.85q-.05-4.05-2.45-6.85z"/><path id="d" fill="#2F2F2F" d="M45.3 32.9q1.35 1.6 3.25 1.6t3.25-1.6q1.3-1.6 1.3-3.85t-1.35-3.9q-1.35-1.6-3.25-1.55-1.85 0-3.2 1.6t-1.35 3.85q0 2.25 1.35 3.85z"/></defs><use xlink:href="#a"/><use transform="translate(0 -2)" xlink:href="#b"/><use transform="scale(.5625)" xlink:href="#c"/><use xlink:href="#d"/></svg>

<svg xmlns="http://www.w3.org/2000/svg" version="1.1" xmlns:xlink="http://www.w3.org/1999/xlink" preserveAspectRatio="none" x="0px" y="0px" width="72px" height="72px" viewBox="0 0 72 72">
<defs>
<g id="Layer0_0_FILL">
<path fill="#FCC21B" stroke="none" d="
M 35.85 4.85
Q 13.55 4.85 4.8 25.5 0 36.75 0 51.95 0 57.8 10.5 61.9 21 66.05 35.85 66.05 50.75 66.05 61.25 61.9 71.75 57.8 71.75 51.95 71.75 36.75 66.95 25.5 58.2 4.85 35.85 4.85 Z"/>
</g>

<g id="Layer0_1_FILL">
<path fill="#ED6C30" stroke="none" d="
M 54.95 43.95
Q 55.9 40.65 54.25 39.55 53.15 38.8 51.4 38.95 51.2 39 48.4 39.55 42.7 40.7 36 40.7 29.25 40.7 23.6 39.55 20.8 39 20.6 38.95 18.85 38.8 17.7 39.55 16.1 40.65 17.05 43.95 18 47.25 20.6 50 23 52.45 26 54 30.55 56.4 36 56.4 41.45 56.4 46 54 49 52.45 51.35 50 54 47.25 54.95 43.95 Z"/>
</g>

<g id="Layer0_2_MEMBER_0_FILL">
<path fill="#2F2F2F" stroke="none" d="
M 47.8 44.7
Q 45.35 41.85 42 41.9 38.65 41.95 36.25 44.8 33.9 47.7 33.95 51.7 34 55.7 36.4 58.55 38.85 61.35 42.2 61.3 45.55 61.25 47.9 58.4 50.25 55.55 50.25 51.55 50.2 47.5 47.8 44.7 Z"/>
</g>

<g id="Layer0_2_MEMBER_1_FILL">
<path fill="#2F2F2F" stroke="none" d="
M 45.3 32.9
Q 46.65 34.5 48.55 34.5 50.45 34.5 51.8 32.9 53.1 31.3 53.1 29.05 53.1 26.8 51.75 25.15 50.4 23.55 48.5 23.6 46.65 23.6 45.3 25.2 43.95 26.8 43.95 29.05 43.95 31.3 45.3 32.9 Z"/>
</g>
</defs>

<g id="Layer_1">
<g transform="matrix( 1, 0, 0, 1, 0,0) ">
<use xlink:href="#Layer0_0_FILL"/>
</g>

<g transform="matrix( 1, 0, 0, 1, 0,-2) ">
<use xlink:href="#Layer0_1_FILL"/>
</g>

<g transform="matrix( 0.5625, 0, 0, 0.5625, 0,0) ">
<use xlink:href="#Layer0_2_MEMBER_0_FILL"/>
</g>

<g transform="matrix( 1, 0, 0, 1, 0,0) ">
<use xlink:href="#Layer0_2_MEMBER_1_FILL"/>
</g>
</g>
</svg>
